/* XPM */
static char * teddy_xpm[] = {
"25 32 19 1",
" 	c None",
".	c #DBB692",
"+	c #DB926D",
"@	c #B6926D",
"#	c #DBB66D",
"$	c #FFB692",
"%	c #926D49",
"&	c #B69249",
"*	c #B66D49",
"=	c #6D4949",
"-	c #FFFFB6",
";	c #FFDBB6",
">	c #FFDB92",
",	c #DB6D49",
"'	c #DB4949",
")	c #6D6D49",
"!	c #6D4924",
"~	c #B69292",
"{	c #B6B692",
"    ...                  ",
"   +@@@#$$$..$$$ ...     ",
"   @%%&+##++++++#@@@+    ",
"   @%%%@++@@@@@@++@%%#   ",
"   @%%**@@@@@@@@@#@=%@   ",
"   @%%%%%&&@@@&&@.+%%@   ",
"    @%*%%%&&@@&@#.#@@.   ",
"     @&%%%@..+@@+.+@#    ",
"     @*%%%----@=+.#.     ",
"     @%%&;-..->@##.      ",
"     @**@;;+#>>##+.      ",
"      @*%.>>$$$++@       ",
"      #@*,+>$.+,,+       ",
"    .#+&*''''''''*@      ",
"   $$#@%*'''**''*%%&@    ",
"  .##+&*,''**&*''%%%*@#  ",
" .#+++@*'''**@*,'%%)%*@. ",
" #@@@+&*,'**%@@*'%%=%&@+ ",
"#@@@@@%&**@&*@@@,@%%%@++.",
"+@&&&@%@@@@@*&@@+@&**&@+.",
"+&**&@@@++@@*&@@@@@&*&@#.",
" @&&@%%@@+#@&@+++@@@@@@# ",
"  @@%!=%&@@@@@@@%%%@~..  ",
"    %%%%%%&@@@@@@%%@     ",
"    %%*%%&&@@@@@+@@@     ",
"    &&&*&&*%%&&@++#@     ",
"   #@@&&&@&%%%&&@+#.     ",
"   #@@@@@++%%%*&@@+.     ",
"   .@+#++#@@%%&@@@+      ",
"    +@#+++@@&@@@@@.      ",
"     ~#@@@{ @~{~@.       ",
"      ..{{               "};
