/* XPM */
static char * xalex_xpm[] = {
"32 30 43 1",
" 	c None",
".	c #B64900",
"+	c #B66D24",
"@	c #B66D00",
"#	c #DB6D00",
"$	c #DB6D24",
"%	c #DB9224",
"&	c #DB4900",
"*	c #B69224",
"=	c #924900",
"-	c #6D2400",
";	c #B64924",
">	c #B66D49",
",	c #924924",
"'	c #926D24",
")	c #240000",
"!	c #DB926D",
"~	c #FFDBDB",
"{	c #FFFFDB",
"]	c #DBB692",
"^	c #242400",
"/	c #DBB6B6",
"(	c #DBDBDB",
"_	c #6D4949",
":	c #492424",
"<	c #B6B6B6",
"[	c #DBDBB6",
"}	c #DBB66D",
"|	c #6D0000",
"1	c #926D6D",
"2	c #B69249",
"3	c #490000",
"4	c #6D4900",
"5	c #FFDBB6",
"6	c #B6B66D",
"7	c #DBDB92",
"8	c #B6B692",
"9	c #6D4924",
"0	c #B6926D",
"a	c #492400",
"b	c #922400",
"c	c #DB9249",
"d	c #6D2424",
"             ..+++              ",
"            +@###$+             ",
"           %++#&##$+            ",
"          *++$.&.=$$+           ",
"          %++=..#$.@*           ",
"          %@-+;>,=-.+=          ",
"         '+=)!~{~]^--,+         ",
"         -++/~(_:<[}>.,+        ",
"        |=%[{{[1:<{~[2-++       ",
"      |3|4}(~[[[[(5[[6-3,++     ",
" 33))3333 2[[[7}[8[7}'9 )+$%%$* ",
"3)))33333 ,0}]}]}!2>,-3   ++$$$*",
"3))3333a+$.-,,,,----33-+   =.$$'",
" 33333 *$#$b)33)))))))=%     =  ",
"      +%$.@.-))))3)))a$%*       ",
"      %#@....b-b=.-)3b.$%+      ",
"     c%#@-+&##$&...=b=..++      ",
"     %$.- %$##$.&&.==3bbb-      ",
"     +b3 +%$#$&#$&.@.= 33-      ",
"     ))  +%#$$#....$$$=         ",
"         +$$%$.$&..&#@=         ",
"         +$#$$@+@..#$+          ",
"         +$#+$+...&&#+          ",
"        =#&&.....&&#&@          ",
"        .&#&....$.....          ",
"       =.##.@.bb+...b.          ",
"       ...b... ,2+;.==          ",
"       .;..++=  ,]]2,-          ",
"       ]]]02,a   99da           ",
"       ,99a3)                   "};
