/* XPM */
static char * xbobo_xpm[] = {
"32 32 29 1",
" 	c None",
".	c #DBB692",
"+	c #FFDBB6",
"@	c #DBB66D",
"#	c #B66D24",
"$	c #DBDBB6",
"%	c #DB9224",
"&	c #FFDB92",
"*	c #DB9249",
"=	c #B69249",
"-	c #DBB649",
";	c #DBDB92",
">	c #DBB6B6",
",	c #B66D49",
"'	c #B6926D",
")	c #926D49",
"!	c #DB6D24",
"~	c #DBDBDB",
"{	c #B6B692",
"]	c #6D4924",
"^	c #924924",
"/	c #FFDBDB",
"(	c #FFFFDB",
"_	c #492400",
":	c #B64924",
"<	c #B64900",
"[	c #924900",
"}	c #B6B66D",
"|	c #492424",
"                                ",
"                                ",
"                                ",
"                                ",
"                                ",
"                                ",
"                                ",
"                                ",
"                                ",
"              ..                ",
"             +@#@               ",
"         $...@%%@               ",
"       $&@@@@**=                ",
"      $+&@@@-@&;$.              ",
"     ++;&@--*--@&+$>      @**,  ",
" '@..&&..@-***-**.*.@.   .$@@*, ",
")==**@@.@-***%%%!*%-*@@=@$+.*##)",
">~>{'))@@*%%!!!%%%**%-*@#=,)]^] ",
" '$/($.@**%####!!!!%###@*#_     ",
"  ]).$$$+!!#*##:<:[<<<####]     ",
"     ))';!<#@./$.'={''''^_      ",
"        }+.@.]))^|]))))         ",
"         =$($                   ",
"           ='                   ",
"                                ",
"                                ",
"                                ",
"                                ",
"                                ",
"                                ",
"                                ",
"                                "};
