/* XPM */
static char * xbrummi_xpm[] = {
"30 32 70 1",
" 	c None",
".	c #DBB66D",
"+	c #DBB692",
"@	c #B69249",
"#	c #B69224",
"$	c #DBB649",
"%	c #FFB649",
"&	c #FFDB6D",
"*	c #FFDB92",
"=	c #FFB624",
"-	c #FFDBB6",
";	c #B6926D",
">	c #DBB624",
",	c #DB6D00",
"'	c #FFB66D",
")	c #FFDB49",
"!	c #FFFFB6",
"~	c #FFDBDB",
"{	c #DB9249",
"]	c #DB9224",
"^	c #FF9200",
"/	c #FFB600",
"(	c #B66D24",
"_	c #DB9200",
":	c #B66D00",
"<	c #FFFFDB",
"[	c #DBDBB6",
"}	c #6D4900",
"|	c #DBDB92",
"1	c #494924",
"2	c #240000",
"3	c #926D24",
"4	c #6D4924",
"5	c #6D6D24",
"6	c #242424",
"7	c #DBDB6D",
"8	c #6D6D49",
"9	c #B6B649",
"0	c #DBDB49",
"a	c #929224",
"b	c #926D00",
"c	c #924900",
"d	c #B64900",
"e	c #922400",
"f	c #490000",
"g	c #924924",
"h	c #B64924",
"i	c #DB4949",
"j	c #924949",
"k	c #492424",
"l	c #B69292",
"m	c #DB9292",
"n	c #DB92B6",
"o	c #6D0000",
"p	c #492400",
"q	c #922424",
"r	c #6D2424",
"s	c #DBB6B6",
"t	c #B692B6",
"u	c #6D2400",
"v	c #B62400",
"w	c #DB4900",
"x	c #DB6D24",
"y	c #B6B66D",
"z	c #DBDB24",
"A	c #B69200",
"B	c #926D49",
"C	c #242400",
"D	c #494900",
"E	c #000000",
"              ..+   .++       ",
"       @..#$.%&&&%.****+      ",
"      .$%&&%==%%%%&-*.$$;     ",
"     $>,$'*=>=%==%)&!~{]$     ",
"     {],{&%=^///===%&~~${     ",
"     @,(%%%>>&**%_::$*<[@     ",
"     (:$$$}#!|;+<-12$%*[3     ",
"      {$%$4[!561!![>=]7+      ",
"      $$%%$!!78.&*-$__>{      ",
"      #>>>$*&&90&77$,_]#      ",
"      #>]_$700a$0#.],__(      ",
"      (]]_>.(b(#(@._,]:c      ",
"       :__]$.@c3#{]d]:ef      ",
"       e:_,,]]d#],d:dd(.      ",
"  .$>>>]dd:gec:(ddhh]>=%&|+   ",
" .%=___==],iijgkglmn{>>]=&*[  ",
"@.%>____==>opoo2qrls(]__%&&$. ",
"##]],,,,]=_d:f2fq4tu:__,]%>>$@",
" #_:d,,,____,ofovrje_:,____,_b",
" c:,,dvv,,,,wvddwvod,]$$$],,,g",
" :]>]]:c,,,,ww,,,,vdx$%'%$]:c ",
" ]>$]]]]_,,,,w,,,,w,$%**-*.(  ",
"@$77.]]]]_,,ww,],,,>$|70$$[c  ",
"y#]>].]]$>,,ww,],,,$7$$$$$+u  ",
" #(]]$$__$],ww,]_,]>.$]$$.gc} ",
" $]>$00$]>]:wd:]_,]$7&7>z>(@p ",
" @>>7>z7]]]d,::],:]{70>__>$@  ",
" 3bb:A_>],:dd::::(]{$$((d:#c  ",
"  p2pu::::cuddd:d::(]$(cc33p  ",
"   4fp}ccuf2cccgcuc}c#.BB;C2  ",
"    33Dpp22  fpuu22p22p442E   ",
"               2E   EEEEE     "};
