/* XPM */
static char * xcherubino_xpm[] = {
"24 32 27 1",
" 	c None",
".	c #000000",
"+	c #2B2B2B",
"@	c #555555",
"#	c #805580",
"$	c #805555",
"%	c #AA5580",
"&	c #AA8080",
"*	c #AA5555",
"=	c #808080",
"-	c #AA2B2B",
";	c #AA2B55",
">	c #00002B",
",	c #AA002B",
"'	c #D42B55",
")	c #D48080",
"!	c #552B55",
"~	c #D45555",
"{	c #802B55",
"]	c #802B2B",
"^	c #80002B",
"/	c #D45580",
"(	c #552B2B",
"_	c #800000",
":	c #2B002B",
"<	c #D42B2B",
"[	c #AA0000",
"      .+@#####@+.       ",
"    .+$%%%&**%&&$.      ",
"   .@=*--;;----*&=+     ",
"   @&-----------;%=+    ",
"  >=;--------;-,-')#.   ",
"  !%----------;,--~)#   ",
" +${;-------]];-,--~=>  ",
".$***------;;;;;---'=> .",
"+#;%*-,----;;---;*$#@. .",
"$%-**--^----;---;*#@  ..",
"#*-];-]];;---''~~*;#!   ",
"#*,^];-{;;;--;*~/*--*!  ",
"$*-,^;****~~;$$;/*^--$+ ",
"(*--,]$%%///~$]{%{]---$.",
"+$*-,]]]%%))))%{{{;---*(",
".]*;--{{]$%%))%]];-----$",
" +$*-,-]^^{{{]]^]-;----#",
" .$*--^_^^^^___^^^-'---#",
"  (*--^__^^^___^^_-'--*#",
"  (*--^_________^^;*''%(",
"  :$;--]_______^_^{%*#! ",
"  .#*;;'-^_____^^^]]{(  ",
"  .%;--'~-__^]]]]]--;!  ",
"  +%-_,;'-^^];-----;*#. ",
"  (%-__-<-]$;------<;%+ ",
"  (%-_^----*'<------'/! ",
"  +);_^---;/~'<-;-<'~/$ ",
"  +&~[_-<-;)~-,,,--'~/$ ",
"  .#/---'-;%/-[[[[['/)$ ",
"   +#/~~~${$&/--[[-'~&+ ",
"  . :$##$+>+$%))/~'~/$. ",
"  +.  ...   .(#&&%#$!.  "};
