/* XPM */
static char * xduck_xpm[] = {
"26 32 31 1",
" 	c None",
".	c #DBB600",
"+	c #B69200",
"@	c #DB9200",
"#	c #B66D00",
"$	c #926D00",
"%	c #492400",
"&	c #929249",
"*	c #6D4924",
"=	c #000000",
"-	c #92926D",
";	c #6D0000",
">	c #B62400",
",	c #B64900",
"'	c #DB6D24",
")	c #DB6D00",
"!	c #B69249",
"~	c #DB4900",
"{	c #DB4924",
"]	c #DB2400",
"^	c #B69224",
"/	c #922400",
"(	c #6D2400",
"_	c #920000",
":	c #DBDB24",
"<	c #490000",
"[	c #490024",
"}	c #240000",
"|	c #924900",
"1	c #FFB600",
"2	c #FFDB00",
"                          ",
"             ....         ",
"          +@......        ",
"         +++@..+@.        ",
"        ##+++$%&+@@       ",
"        #####*=-#++       ",
"   ;>  ,,')##&&!++++      ",
"   ;;>,~~{],#^^+++++      ",
"   /;;>]]]]]#++@@@++      ",
"   /(;;>>>]])@@@..@+      ",
"     ;;_>>>~~,++@@@+ :    ",
"     <[;;__//_#+++++...   ",
"    <<<<<<<;;_,##+++...   ",
"    <}}<<;___|###++@1...  ",
"    <<;;___>,####++111..  ",
"    ;;_/,,#######@1211..  ",
"      ||,#######@@1111..  ",
"     ||,#####+##@@@11..1  ",
"    $|,#####+++@@@@....1  ",
"   #|,#####++++@@@@...... ",
"   ########++++@@@@...... ",
"  #########++++@@@@...... ",
"  #########++++@@@@...... ",
"  #########++++@++@@..... ",
"  #########++++++@@@@@@.. ",
"  ##########+++++@@@@@@.. ",
"   #########+++++@@@+@@.  ",
"   ########+++++++@@+@@   ",
"    ########++++++++@@    ",
"      ######+++++++++     ",
"        #####++++++       ",
"                          "};
