/* XPM */
static char * xhedgehog_xpm[] = {
"25 32 22 1",
" 	c None",
".	c #000000",
"+	c #242424",
"@	c #494949",
"#	c #6D4949",
"$	c #6D6D6D",
"%	c #240024",
"&	c #242449",
"*	c #492424",
"=	c #492449",
"-	c #926D6D",
";	c #242400",
">	c #6D496D",
",	c #494924",
"'	c #924949",
")	c #929292",
"!	c #926D92",
"~	c #240000",
"{	c #6D2424",
"]	c #6D4924",
"^	c #926D49",
"/	c #000024",
"       .+@@#$$@+%.       ",
"       &@@@@@@@#$&.      ",
"     .+@*++*++*@@#@.     ",
"     +$@++*++++**@#=     ",
"    .@@*****++++**@@.    ",
"    &@+@#+++++++**#$+    ",
"   +=++#-@++;;;+*###@.   ",
"  .=*++*>#+;;;;+*@**@.   ",
"  %@***@##*;;;;+***,@.   ",
"  +@++@####*;;++**#@#.   ",
"  +*+*#####@*****#>>>+   ",
"  +*+*##'#####***#>>#@.  ",
"  ++;*##-**#->####-#@>%  ",
" .*++*#$>>$-$#*+@#$@@#.  ",
" %*;++@-'-)!-@%%+@$$$$+  ",
" +*++~*>-!!-$@%.+>-----+ ",
" +$#*+;*-!!--$@+#------>.",
".@->#{**@$$------------>.",
".#>''''######-!!-##---->.",
"+>$'''''-'#{*>--#]#--!-#.",
"@>-'^----''#]##]]##-!)$+ ",
"@>-'---$^'''''#####$-!=  ",
"*@$---$#'^^-----##-!!!$+ ",
"**@$$--!--'-^^--#-!---!$.",
"**-!----!-'''--'-!-->#-!@",
"*@$-->##-!-#'--#--#***@-!",
"+@$-#***#--#'-'#--*+***-)",
".@$-*****--##'##--*+++*-!",
".@--*+*+*-$####@--#*+*#!@",
" &!!#***#-@++*++@!!###->+",
" +$!-##$-@/  .. /@$@=++. ",
" .+++=@=+.  .... ...     "};
