/* XPM */
static char * xklitze_xpm[] = {
"32 32 43 1",
" 	c None",
".	c #6D2400",
"+	c #492400",
"@	c #240000",
"#	c #6D2424",
"$	c #6D4924",
"%	c #924924",
"&	c #B69249",
"*	c #DBB649",
"=	c #DBDB49",
"-	c #926D24",
";	c #000000",
">	c #490000",
",	c #FFFF49",
"'	c #DBDB24",
")	c #B69224",
"!	c #6D6D00",
"~	c #FFDB24",
"{	c #6D4949",
"]	c #929292",
"^	c #B6B6B6",
"/	c #DBDBB6",
"(	c #92926D",
"_	c #242400",
":	c #6D4900",
"<	c #926D00",
"[	c #DBDB92",
"}	c #DBFFDB",
"|	c #B6B692",
"1	c #926D49",
"2	c #494924",
"3	c #924900",
"4	c #492424",
"5	c #B6B66D",
"6	c #B6926D",
"7	c #DBB624",
"8	c #B66D24",
"9	c #DBB66D",
"0	c #6D6D49",
"a	c #926D6D",
"b	c #DBB6B6",
"c	c #DBDBDB",
"d	c #929249",
"                                ",
"                                ",
"                                ",
"                                ",
"                                ",
"                                ",
"                                ",
"                                ",
"                                ",
"                      .+++@     ",
"                    #$.+@@@@@   ",
"              +++ #$%&*=-@;;@   ",
"             +@@>##%=,,')!;@@@> ",
"             @@+##-=~~~')&{]^/(_",
"               $.$==):<*[}/|1112",
"              $#+)'3@@4/[56$+@  ",
" +++        .$#+)78+@@6|51$@    ",
"@@>++++@@++++#+$*9$@@46$$+@     ",
"+@++@@@@;@@>@+0|//+@+$++>@      ",
" +@@@@@@;@@44|//|6+++@@@@       ",
" +@@@@@+$$abc/6%$+@@@           ",
"  +@@>+$$dd1611+@               ",
"         @+@@@                  ",
"                                ",
"                                ",
"                                ",
"                                ",
"                                ",
"                                ",
"                                ",
"                                ",
"                                "};
