/* XPM */
static char * xnamu_xpm[] = {
"32 32 31 1",
" 	c None",
".	c #240000",
"+	c #926D49",
"@	c #DBDBDB",
"#	c #6D4949",
"$	c #000000",
"%	c #242400",
"&	c #492424",
"*	c #DBDBB6",
"=	c #DBB6B6",
"-	c #B6B6B6",
";	c #929292",
">	c #92926D",
",	c #926D6D",
"'	c #6D6D49",
")	c #FFFFDB",
"!	c #FFFFFF",
"~	c #FFDBDB",
"{	c #DBB692",
"]	c #492400",
"^	c #FFDBB6",
"/	c #B6926D",
"(	c #B69249",
"_	c #B69292",
":	c #242424",
"<	c #B66D49",
"[	c #924924",
"}	c #6D4924",
"|	c #DBB66D",
"1	c #6D2424",
"2	c #6D2400",
"                                ",
"                                ",
"                                ",
"                                ",
"                                ",
"                                ",
"                                ",
"                                ",
"                                ",
"                                ",
"               ..               ",
"              .....   .+@@#$$$  ",
"               .....$$$%%$$$$$$ ",
"               #.$$$$$$$&*=-;>,,",
"              &..$$$$$$$')!)~*{ ",
"            ]...$$$$$$$$$&*^{/+ ",
"  ..$..  .&&.$.$$$$$$$$$$$/{(+  ",
" .$$$$$$$#!!)_#:.&'#$$$$..<+[   ",
".$$$%%$$.&__*))~~**{%..$.}[}    ",
"$$$$}//,&...#*{{|/+++]]]}}      ",
"       ///++//+[}12]]]]         ",
"          }}}}                  ",
"                                ",
"                                ",
"                                ",
"                                ",
"                                ",
"                                ",
"                                ",
"                                ",
"                                ",
"                                "};
