/* XPM */
static char * xorca_xpm[] = {
"30 32 11 1",
" 	c None",
".	c #242424",
"+	c #000000",
"@	c #002424",
"#	c #6D6D6D",
"$	c #929292",
"%	c #B6B6B6",
"&	c #DBDBDB",
"*	c #FFFFFF",
"=	c #244949",
"-	c #494949",
"                              ",
"                              ",
"                              ",
"                              ",
"                              ",
"                              ",
"                              ",
"                     .        ",
"                     +.       ",
"                     +..      ",
"            +........++.      ",
"         +++++++........      ",
"       ++++++........++..+    ",
"      ++++...............++   ",
"    ++++.................@++  ",
"    +++.....................  ",
"   ++....#$%&&&%$#........... ",
"  +++..#&&&&&***&$=...........",
"  ++.-$&&&%%%%&&-........-%-..",
"  +.-#&       %%#-###$....$#..",
" ++..           $$$%%&$.......",
" ++..             %%&*&-......",
" +....             %%&*%...#-.",
"+.....              $%&*%...-.",
"..                    %&*&---.",
"                       %&&&#-.",
"                              ",
"                              ",
"                              ",
"                              ",
"                              ",
"                              "};
