/* XPM */
static char * xpenguin_xpm[] = {
"27 32 37 1",
" 	c None",
".	c #000000",
"+	c #242424",
"@	c #494949",
"#	c #B6B6B6",
"$	c #92926D",
"%	c #929292",
"&	c #494924",
"*	c #B69224",
"=	c #B69200",
"-	c #242400",
";	c #DBB600",
">	c #DBDB24",
",	c #FFDB24",
"'	c #DBB624",
")	c #492400",
"!	c #DB9200",
"~	c #FFB624",
"{	c #929249",
"]	c #B69249",
"^	c #B6926D",
"/	c #DBDBDB",
"(	c #FFFFFF",
"_	c #6D6D6D",
":	c #DBDBB6",
"<	c #6D6D49",
"[	c #FFDB92",
"}	c #926D49",
"|	c #926D00",
"1	c #FFB600",
"2	c #494900",
"3	c #DBB6B6",
"4	c #B66D00",
"5	c #DBDB92",
"6	c #240000",
"7	c #6D4900",
"8	c #924900",
"           ....            ",
"          .....+.          ",
"         .....+@..         ",
"         .........         ",
"         .....++..         ",
"         +#@.$#%..         ",
"         @@%.#+#+.         ",
"         @&*=*-#..         ",
"         -*;>,,'...        ",
"         )!;,~!=...        ",
"         +{=!=]#+@+        ",
"         +#^]^/(%...       ",
"        .#(##/(((+..       ",
"       .@((((((((_...      ",
"      .._((((((//%....     ",
"      ..#(((((((/:@+...    ",
"      +@((((((((((#.+..    ",
"     ../(((((((((((@.+..   ",
"     .@((((((((((((_....   ",
"    .+%((((((((((((_....   ",
"    .+#((((((((((((%....   ",
"    .+#((((((((((((_....   ",
"    ;=<((((((((((([}..++   ",
"   !~~|@/(((((((((;|...!   ",
" ;1~~~~2+#(((((((3;=2241   ",
" 1~~~~~!../((((((#!;!!1~~  ",
" ;~~~~~~|+/((((((_!~11~~~~ ",
" ;~~~~~~;5(((((/@-!~~~~~~~;",
"!1~~~~~~1|%###_..-!~~~~~;  ",
"4=!!;1~~;46......)=1~1!=   ",
"   ||4=!476      -|!!4     ",
"       77         788      "};
