/* XPM */
static char * xpuppy_xpm[] = {
"27 32 31 1",
" 	c None",
".	c #000000",
"+	c #552B55",
"@	c #805580",
"#	c #555555",
"$	c #00002B",
"%	c #2B2B2B",
"&	c #555580",
"*	c #D4AAAA",
"=	c #D4D4D4",
"-	c #AAAAAA",
";	c #D4D4AA",
">	c #FFD4D4",
",	c #AAAAD4",
"'	c #AA80AA",
")	c #D4D4FF",
"!	c #2B2B55",
"~	c #AA8080",
"{	c #8080AA",
"]	c #D4AAD4",
"^	c #808080",
"/	c #FFD4AA",
"(	c #AAAA80",
"_	c #808055",
":	c #805555",
"<	c #55552B",
"[	c #2B002B",
"}	c #80552B",
"|	c #552B2B",
"1	c #AA8055",
"2	c #002B2B",
"            .+@##$         ",
"         ..%&*===-%        ",
"       ..+&-;=>>=>,#..     ",
"      .#'**===>>>>)='#$.   ",
"   . .#-====>=>>>>>===-!.  ",
"     !-====>===)>=>====-%  ",
"    .~;==;===)))========{. ",
" .. +*===--==)==*===,>==]! ",
" . $'====^-==/(##^=)=)===@.",
" ..#*==*=-*==*#%!#-==)==={.",
". %-****=]*===-##{====*=={.",
" ._**---*====>=*-====,*=={.",
" %'-,-~:-======;*====,*;=^.",
" $@'{::<:-=====--**=-^---#.",
" .[[.<~~}:-,]]*-----~||##. ",
"  ...^--~|#-,,==]]]--^...  ",
" ...%~-**1}#^----'~~--!    ",
"....$~-***1}%%%%#:^-*=^.   ",
"...$.^-****~#%2%_-,===,%   ",
"..$$2&-***;*-#|^-,]====^.  ",
" ..!^^-**;;==#%^,-=))==,% .",
"  .#-~'*;;;==-^:-=))))==&. ",
"  .#'~~*;/;==,~_~=)===>=,% ",
"  .|~~-*;/==)='--))==>>==# ",
"   .:~-;======---===>>/;={.",
"   .|~*=======,-'====;;==-.",
"    %^*====>==,-',=***;;;'.",
"    .#-=*=====-{{&@{-**--#.",
"     .'**====-&[$..!{--'#. ",
"      |@-=**-#.    .[+&#.  ",
"       $@--{!.       ...  .",
" ..     .!![.             ."};
