/* XPM */
static char * xruessel_xpm[] = {
"32 32 30 1",
" 	c None",
".	c #B6B6B6",
"+	c #DBDBDB",
"@	c #DBDBB6",
"#	c #B6B692",
"$	c #FFDBDB",
"%	c #DBB6B6",
"&	c #FFFFDB",
"*	c #DBDB92",
"=	c #DBB692",
"-	c #B6B66D",
";	c #FFDBB6",
">	c #B6926D",
",	c #B69249",
"'	c #6D4924",
")	c #DBB66D",
"!	c #926D49",
"~	c #B66D49",
"{	c #926D24",
"]	c #92926D",
"^	c #929249",
"/	c #B6B649",
"(	c #492400",
"_	c #240000",
":	c #924924",
"<	c #6D2400",
"[	c #DBDB6D",
"}	c #490000",
"|	c #929224",
"1	c #6D6D24",
"                                ",
"                                ",
"                                ",
"                                ",
"                                ",
"                                ",
"           .+@                  ",
"          #$@$$%                ",
"       #@@@@@$$&#               ",
"       @@**+$$$$+               ",
"      *@**=+$$$&+%              ",
"      @@@*--;$$$@=              ",
" @@-  *@***-=@@@>,>             ",
" -,,> '***)-!!~{'-****=#        ",
"  -**#!=*))--]-**=)***@@@#      ",
"  ^-***-----=**=))-)))****#     ",
"   !----,,,-****)))---)***=^    ",
"    {,>,^{!-***)-/,,,)***==-    ",
"      '''((^***))--{^=****)--   ",
"           !**))-,,'!)***))-^-  ",
"            -))-,!'(',===))-^*  ",
"            '{{!{(_  (,--=),{*  ",
"             ______  ((:{:'<(/[ ",
"             _____}   (_____(|[ ",
"              _____   (____ 1-- ",
"                             -* ",
"                              ^^",
"                                ",
"                                ",
"                                ",
"                                ",
"                                "};
