/* XPM */
static char * xteddy_xpm[] = {
"25 32 18 1",
" 	c None",
".	c #DBB692",
"+	c #B6926D",
"@	c #DBB66D",
"#	c #FFB692",
"$	c #B69249",
"%	c #926D49",
"&	c #DB926D",
"*	c #6D4949",
"=	c #B66D49",
"-	c #6D4924",
";	c #FFFFB6",
">	c #B6B66D",
",	c #FFDBB6",
"'	c #FFDB92",
")	c #DB6D49",
"!	c #DB4949",
"~	c #B6B692",
"    ...                  ",
"   ++++@###...###...#    ",
"   $%%$&@@&&@@@@.++++    ",
"   $%*=+&&&++&&&&@+%%&   ",
"   +%%$=+++++++$+@@-%+   ",
"   +%%=%=+$+++$$+.@+=+   ",
"    $=$%%$$$++$+@.@++.   ",
"     +$=%%+..@$+&.@+.    ",
"     $==%%;;;;>*&...     ",
"     $=%$,;..,,+@..      ",
"     +$$$,,@@,'@.@.      ",
"      +$=#''##'&&+       ",
"      .+==&''#&))&       ",
"    #@&$=!))))!!)=+      ",
"   ##@+==)!!)))!=%=+&    ",
"  ...&+=)!!==$=!)%%%$+.  ",
" ..@&&$=!!!==+$)!=%%%=+. ",
" @&&&&+=)!==%++=!=%%%$+@.",
".++++&=$==+$=+++)+%%%+&&.",
"@+++++=$++++=+++&++==$+@.",
"&$$$$+++&&&+$$+&&++$$$+@.",
"@+$$++++@@@+$$&@@&++$++@.",
" .++%-%%++.@$+@@+%%+~+.. ",
"    *%%%%+++@+++=%%+     ",
"    %%$%%$$+++++&+$+     ",
"    $$$=$$$=$$$+&&@+     ",
"   +$$$$$+$%%=$+&&@.     ",
"   @&&+++&&%=%$++&@.     ",
"   .+@@&&@@+%%$++++.     ",
"    +..@&@++$$++&+@      ",
"    .+.&+&..+@.@@..      ",
"     ......  .....       "};
