/* XPM */
static char * xtrouble_xpm[] = {
"29 32 22 1",
" 	c None",
".	c #000000",
"+	c #242424",
"@	c #240000",
"#	c #6D4924",
"$	c #B66D49",
"%	c #926D49",
"&	c #924924",
"*	c #492424",
"=	c #6D4949",
"-	c #B66D24",
";	c #B64924",
">	c #B64900",
",	c #B66D00",
"'	c #924900",
")	c #242400",
"!	c #926D24",
"~	c #6D2424",
"{	c #6D2400",
"]	c #492400",
"^	c #6D4900",
"/	c #924949",
"      .+. @#$$$$%#+&%@       ",
"      *$=*&-$--------*       ",
"     .#$$--$---------#.      ",
"     .#-;-&---->,,---#.      ",
"      *&&-&;>;;>'',--#.      ",
"      )#&&;'#&--&#>-$*.      ",
"      .#'&&'&-------%.       ",
"      .##&&&------$-%.       ",
"      .#&&&!--&~{--$%.       ",
"       *&&&&&-&@]&--%*.      ",
"      *#####&&-#^;-->-#.     ",
"    .*#{{{#~^&-&';;'>>-#.    ",
"    *&'{{{~{{^&&&&'''>>-)    ",
"   .&'''{{^##&&-;;;''>>-#    ",
"   *-;''{{^&&&&;---&'>>,-*.  ",
"   #--;'{^&&''&-----''>>,;#+ ",
"  .#--&^{&''''>,----;''>,>,-]",
".*#&;&'{'&''''>,--,-,;''>,,-!",
"#-;'-&'''&&'''>>-,,,,-&'>>,,$",
"&-;--&&'&&&'';'>-->,---''>,-#",
"$----&&&&&&&&;''>,>>;>-,;-;*.",
"%---&&&;;'&&'&&'>--''>>>,-*. ",
"*&&&#&'>>>>&''&';-&''>>>>-*  ",
".)***#;;>>';;&&&&&'''''>>-&@ ",
"    @&&;;';;,--&{'''>'''>>-#.",
"    @&&;>,->>,,>''''''''>>>-+",
"    .*&'>>>>>>>>''''''''>>-$*",
"     *&'>>>>>>>-''''''''>;-$*",
"     #;'>>>>>>>,;'''''''&;-/@",
"     #-&;;;;;;;-&''''''&&-/+ ",
"     @#-&&---&&#]*~&#####*@  ",
"      @*#&&/#*+@ .@)@@...    "};
