/* XPM */
static char * xtuxxy_xpm[] = {
"24 32 40 1",
" 	c None",
".	c #000000",
"+	c #242424",
"@	c #494949",
"#	c #DBDBDB",
"$	c #B6B6B6",
"%	c #6D6D6D",
"&	c #002400",
"*	c #6D4949",
"=	c #242400",
"-	c #926D24",
";	c #B69224",
">	c #DBB624",
",	c #DBB649",
"'	c #B6926D",
")	c #494924",
"!	c #926D00",
"~	c #B69200",
"{	c #DB9200",
"]	c #DBB600",
"^	c #6D6D24",
"/	c #B66D00",
"(	c #6D4924",
"_	c #492400",
":	c #6D4900",
"<	c #6D6D00",
"[	c #926D49",
"}	c #B69249",
"|	c #926D6D",
"1	c #929292",
"2	c #B6B6DB",
"3	c #92926D",
"4	c #DBDBFF",
"5	c #DB9224",
"6	c #B69292",
"7	c #6D6D49",
"8	c #492424",
"9	c #B6B649",
"0	c #B6B624",
"a	c #929224",
"       ...+             ",
"      .....+            ",
"      ......@           ",
"     ....@++#@          ",
"     ...@$$+%@          ",
"     &..%@+@@*@         ",
"     =&.++=-;>,'        ",
"     =..=)!~~{]>        ",
"     =&..^!/~~~]        ",
"     =&..(__:::^        ",
"     =&.+^<---;[        ",
"      =+@%[--}|++       ",
"      ++@11$$#1++       ",
"      ++@1$2##1.++      ",
"     +++@1$$##$..+&     ",
"    ++++@1$$###@.+++    ",
"   +++++@11$###$&+++=+  ",
"  ++++.+@|1$2###@+++++++",
" +=++..+@|1$$###$+++++++",
"++++ ...%31$$##4#  @)   ",
"+==+ ..+111$$####%-~5   ",
"+&.. ..+116$$####7~{]   ",
"+=&....+|16$$###6(~]]>  ",
"+++&&&=+)36$$##$)!~{]   ",
" ==.+==)))71$$1)=!~;>   ",
" =.&==)~~~;-)+8+)!-,    ",
"  &..=^~~~/{;@@@^-;9    ",
"   ++:!!~//{,@@+^-0     ",
"     ^!///{>,           ",
"     (^-~~>>}           ",
"      (^a;;9            ",
"        ^-}             "};
